X:1
T: The Whistling Thief
C:
R:Jig
Q:180
K:G
M:6/8
L:1/16
|:e2|d4B2 B4B2|B6-B4e2|d4B2 B4B2|e6-e2f2g2|
d4B2 B4B2|B6-B4d2|e4e2 f2e2f2|g6-g4:|
|:g2|f4d2 e4^c2|d6-d4g2|f4d2 e2d2^c2|d6-d4d2|d4d2 d2e2f2|
g6 g4e2|d2b2G2 A4G2|g6 g4e2|d2B2G2 A4B2|G6-G4:|
